X:183 
T:Satin Slipper Reel [1], The
B:CRE5.116i (SlipÃÂÃÂÃÂÃÂ©ar SrÃÂÃÂÃÂÃÂ³il)
F:file ID: cre.5/183sat_s1
Q:180
M:4/4
R:reel
K:D
dB|A3B AFFA|d2cA BGGB|A2FA dcdf|eBBA Bc (3dcB|
AFdF AFFA|d2cA BGGB|A2FA dcdf|edcB A2:|
de|:f2 df g2 ag|f2 df ecAc|f2 df g2 ag|fdaf e2 de|
f2 df g2 ag|f2 df edcB|A2FA dcdf|1 eBBA Bcde:|\
[2 eBBA cAGE|D8|]

%%%

